assets/icons/qvision/crop_original.svg

<svg xmlns="http://www.w3.org/2000/svg" height="24" viewBox="0 0 24 24" width="24"><path d="M0 0h24v24H0z" fill="none"/><path d="M19 3H5c-1.1 0-2 .9-2 2v14c0 1.1.9 2 2 2h14c1.1 0 2-.9 2-2V5c0-1.1-.9-2-2-2zm0 16H5V5h14v14zm-5.04-6.71l-2.75 3.54-1.96-2.36L6.5 17h11l-3.54-4.71z"/></svg>

<svg width="24" height="24" viewBox="0 0 24 24" fill="none" xmlns="http://www.w3.org/2000/svg">
<g clip-path="url(#clip0_147_3348)">
<path d="M19 3H5C3.9 3 3 3.9 3 5V19C3 20.1 3.9 21 5 21H19C20.1 21 21 20.1 21 19V5C21 3.9 20.1 3 19 3ZM19 19H5V5H19V19ZM13.96 12.29L11.21 15.83L9.25 13.47L6.5 17H17.5L13.96 12.29Z" fill="#323232"/>
</g>
<defs>
<clipPath id="clip0_147_3348">
<rect width="24" height="24" fill="white"/>
</clipPath>
</defs>
</svg>
